src/assets/duotone/Forward15Seconds.svg

<?xml version="1.0" encoding="UTF-8"?>
<svg width="24" height="24" viewBox="0 0 24 24" xmlns="http://www.w3.org/2000/svg">
 <path d="m14.43 16.92h-2.29c-0.41 0-0.75-0.34-0.75-0.75s0.34-0.75 0.75-0.75h2.29c0.43 0 0.7801-0.3499 0.7801-0.7799s-0.3501-0.7801-0.7801-0.7801h-2.29c-0.24 0-0.4699-0.12-0.6099-0.31s-0.1801-0.4499-0.1001-0.6799l0.76-2.29c0.1-0.31 0.3901-0.51 0.7101-0.51h3.06c0.41 0 0.75 0.34 0.75 0.75s-0.34 0.75-0.75 0.75h-2.5201l-0.26 0.7899h1.25c1.26 0 2.2801 1.0201 2.2801 2.2801s-1.0301 2.2799-2.2801 2.2799z"/>
 <path d="m9.54 16.92c-0.41 0-0.75-0.34-0.75-0.75v-3.39l-0.19001 0.22c-0.28 0.31-0.74999 0.33-1.06 0.06-0.31-0.28-0.33-0.75-0.06-1.06l1.5-1.67c0.21-0.23 0.54002-0.31 0.83002-0.2 0.29004 0.11 0.47994 0.39 0.47994 0.7v5.35c0 0.41-0.32996 0.74-0.74996 0.74z"/>
 <path d="m19.69 7.35c-0.25-0.33-0.72-0.39997-1.05-0.14997s-0.4 0.71999-0.15 1.05c1.08 1.44 1.65 3.12 1.65 4.86 0 4.49-3.65 8.14-8.14 8.14-4.49 0-8.14-3.65-8.14-8.14 0-4.49 3.65-8.14 8.14-8.14 0.58 0 1.17 0.07003 1.81 0.22003 0.03 0.01 0.06 0 0.09 0s0.05 0.02002 0.07 0.02002c0.03 0 0.05-0.01001 0.08-0.01001s0.06-0.01002 0.1-0.02002c0.06-0.01 0.11-0.03999 0.16-0.05999 0.03-0.02 0.06-0.02999 0.09-0.04999 0.01-0.01 0.03-0.01002 0.04-0.02002 0.03-0.02 0.04-0.05001 0.06-0.07001 0.04-0.04 0.07-0.06999 0.1-0.11999 0.03-0.04 0.04-0.09002 0.06-0.14002 0.01-0.03 0.03-0.05996 0.04-0.08996v-0.04999c0.01-0.05 0.01-0.10003 0-0.15003 0-0.05 0-0.09001-0.01-0.14001-0.01-0.04-0.03-0.08001-0.05-0.13001s-0.04-0.09995-0.07-0.13995c-0.01-0.01-0.01-0.03004-0.02-0.04004l-1.98-2.47c-0.26-0.32-0.73-0.37999-1.05-0.11999s-0.37 0.72998-0.12 1.05l0.82 1.02c-0.08 0-0.16-0.01001-0.24-0.01001-5.31 0-9.64 4.32-9.64 9.64 0 5.32 4.32 9.64 9.64 9.64s9.64-4.32 9.64-9.64c0.02-2.05-0.66-4.04-1.93-5.74z" opacity=".4"/>
</svg>

<svg width="24" height="24" viewBox="0 0 24 24"  xmlns="http://www.w3.org/2000/svg">
<path d="M14.4299 16.92H12.1399C11.7299 16.92 11.3899 16.58 11.3899 16.17C11.3899 15.76 11.7299 15.42 12.1399 15.42H14.4299C14.8599 15.42 15.21 15.0701 15.21 14.6401C15.21 14.2101 14.8599 13.86 14.4299 13.86H12.1399C11.8999 13.86 11.67 13.74 11.53 13.55C11.39 13.36 11.3499 13.1001 11.4299 12.8701L12.1899 10.5801C12.2899 10.2701 12.58 10.0701 12.9 10.0701H15.96C16.37 10.0701 16.71 10.4101 16.71 10.8201C16.71 11.2301 16.37 11.5701 15.96 11.5701H13.4399L13.1799 12.36H14.4299C15.6899 12.36 16.71 13.3801 16.71 14.6401C16.71 15.9001 15.6799 16.92 14.4299 16.92Z" />
<path d="M9.54004 16.9201C9.13004 16.9201 8.79004 16.5801 8.79004 16.1701V12.7801L8.60003 13.0001C8.32003 13.3101 7.85004 13.3301 7.54004 13.0601C7.23004 12.7801 7.21004 12.3101 7.48004 12.0001L8.98004 10.3301C9.19004 10.1001 9.52006 10.0201 9.81006 10.1301C10.1001 10.2401 10.29 10.5201 10.29 10.8301V16.1801C10.29 16.5901 9.96004 16.9201 9.54004 16.9201Z" />
<path opacity="0.4" d="M19.6898 7.34997C19.4398 7.01997 18.9698 6.95 18.6398 7.2C18.3098 7.45 18.2398 7.91999 18.4898 8.24999C19.5698 9.68999 20.1398 11.37 20.1398 13.11C20.1398 17.6 16.4898 21.25 11.9998 21.25C7.50982 21.25 3.8598 17.6 3.8598 13.11C3.8598 8.61998 7.50982 4.96996 11.9998 4.96996C12.5798 4.96996 13.1698 5.03999 13.8098 5.18999C13.8398 5.19999 13.8698 5.18999 13.8998 5.18999C13.9298 5.18999 13.9498 5.21001 13.9698 5.21001C13.9998 5.21001 14.0198 5.2 14.0498 5.2C14.0798 5.2 14.1098 5.18998 14.1498 5.17998C14.2098 5.16998 14.2598 5.13999 14.3098 5.11999C14.3398 5.09999 14.3698 5.09 14.3998 5.07C14.4098 5.06 14.4298 5.05998 14.4398 5.04998C14.4698 5.02998 14.4798 4.99997 14.4998 4.97997C14.5398 4.93997 14.5698 4.90998 14.5998 4.85998C14.6298 4.81998 14.6398 4.76996 14.6598 4.71996C14.6698 4.68996 14.6898 4.66 14.6998 4.63C14.6998 4.61 14.6998 4.60001 14.6998 4.58001C14.7098 4.53001 14.7098 4.47998 14.6998 4.42998C14.6998 4.37998 14.6998 4.33997 14.6898 4.28997C14.6798 4.24997 14.6598 4.20996 14.6398 4.15996C14.6198 4.10996 14.5998 4.06001 14.5698 4.02001C14.5598 4.01001 14.5598 3.98997 14.5498 3.97997L12.5698 1.51C12.3098 1.19 11.8398 1.13001 11.5198 1.39001C11.1998 1.65001 11.1498 2.11999 11.3998 2.43999L12.2198 3.46001C12.1398 3.46001 12.0598 3.45 11.9798 3.45C6.6698 3.45 2.33984 7.77002 2.33984 13.09C2.33984 18.41 6.6598 22.73 11.9798 22.73C17.2998 22.73 21.6198 18.41 21.6198 13.09C21.6398 11.04 20.9598 9.04997 19.6898 7.34997Z" />
</svg>
